src/assets/img/tools/docker.svg

<svg width="24" height="24" viewBox="0 0 24 24" fill="none" xmlns="http://www.w3.org/2000/svg">
    <g clip-path="url(#clip0)">
        <path d="M13.983 11.078H16.102C16.1512 11.078 16.1983 11.0585 16.2332 11.0239C16.268 10.9892 16.2877 10.9422 16.288 10.893V9.00601C16.288 8.95668 16.2684 8.90937 16.2335 8.87449C16.1986 8.8396 16.1513 8.82001 16.102 8.82001H13.983C13.9339 8.82001 13.8869 8.8395 13.8522 8.87419C13.8175 8.90889 13.798 8.95594 13.798 9.00501V10.893C13.798 10.995 13.881 11.078 13.983 11.078ZM11.029 5.64801H13.147C13.1963 5.64801 13.2436 5.62841 13.2785 5.59353C13.3134 5.55865 13.333 5.51134 13.333 5.46201V3.57401C13.3327 3.52485 13.313 3.4778 13.2782 3.44313C13.2433 3.40847 13.1962 3.38901 13.147 3.38901H11.029C10.9799 3.38901 10.9329 3.4085 10.8982 3.44319C10.8635 3.47789 10.844 3.52494 10.844 3.57401V5.46201C10.844 5.56401 10.926 5.64701 11.029 5.64701V5.64801ZM11.029 8.36301H13.147C13.1963 8.36274 13.2434 8.34306 13.2782 8.30824C13.3131 8.27341 13.3327 8.22626 13.333 8.17701V6.29001C13.3327 6.24085 13.313 6.1938 13.2782 6.15913C13.2433 6.12447 13.1962 6.10501 13.147 6.10501H11.029C10.9799 6.10501 10.9329 6.1245 10.8982 6.15919C10.8635 6.19389 10.844 6.24094 10.844 6.29001V8.17701C10.844 8.27901 10.926 8.36201 11.029 8.36301ZM8.099 8.36301H10.219C10.268 8.36248 10.3148 8.34265 10.3492 8.30783C10.3837 8.273 10.403 8.22599 10.403 8.17701V6.29001C10.403 6.24094 10.3835 6.19389 10.3488 6.15919C10.3141 6.1245 10.2671 6.10501 10.218 6.10501H8.1C8.05094 6.10501 8.00388 6.1245 7.96919 6.15919C7.93449 6.19389 7.915 6.24094 7.915 6.29001V8.17701C7.915 8.27901 7.998 8.36201 8.1 8.36301H8.099ZM5.136 8.36301H7.255C7.30416 8.36274 7.35121 8.34303 7.38588 8.30818C7.42054 8.27332 7.44 8.22617 7.44 8.17701V6.29001C7.44 6.24094 7.42051 6.19389 7.38582 6.15919C7.35112 6.1245 7.30407 6.10501 7.255 6.10501H5.136C5.08684 6.10501 5.03969 6.12447 5.00483 6.15913C4.96998 6.1938 4.95027 6.24085 4.95 6.29001V8.17701C4.95 8.27901 5.034 8.36201 5.136 8.36301ZM11.029 11.078H13.147C13.1962 11.078 13.2433 11.0585 13.2782 11.0239C13.313 10.9892 13.3327 10.9422 13.333 10.893V9.00601C13.333 8.95668 13.3134 8.90937 13.2785 8.87449C13.2436 8.8396 13.1963 8.82001 13.147 8.82001H11.029C10.9799 8.82001 10.9329 8.8395 10.8982 8.87419C10.8635 8.90889 10.844 8.95594 10.844 9.00501V10.893C10.844 10.995 10.926 11.078 11.029 11.078ZM8.099 11.078H10.219C10.2679 11.0777 10.3147 11.0581 10.3492 11.0235C10.3836 10.9888 10.403 10.9419 10.403 10.893V9.00601C10.4031 8.98171 10.3985 8.95763 10.3893 8.93513C10.3801 8.91264 10.3666 8.89217 10.3495 8.8749C10.3324 8.85763 10.3121 8.84389 10.2897 8.83447C10.2673 8.82505 10.2433 8.82014 10.219 8.82001H8.099C8.05011 8.82027 8.00331 8.83988 7.96883 8.87455C7.93435 8.90921 7.915 8.95612 7.915 9.00501V10.893C7.915 10.995 7.998 11.078 8.1 11.078H8.099ZM5.136 11.078H7.255C7.30407 11.078 7.35112 11.0585 7.38582 11.0238C7.42051 10.9891 7.44 10.9421 7.44 10.893V9.00601C7.44013 8.98171 7.43548 8.95763 7.4263 8.93513C7.41713 8.91264 7.40361 8.89217 7.38652 8.8749C7.36944 8.85763 7.34912 8.84389 7.32672 8.83447C7.30433 8.82505 7.2803 8.82014 7.256 8.82001H5.136C5.08667 8.82001 5.03936 8.8396 5.00448 8.87449C4.9696 8.90937 4.95 8.95668 4.95 9.00601V10.893C4.95 10.995 5.034 11.078 5.136 11.078ZM2.216 11.078H4.336C4.38489 11.0777 4.43169 11.0581 4.46617 11.0235C4.50065 10.9888 4.52 10.9419 4.52 10.893V9.00601C4.52013 8.98171 4.51548 8.95763 4.5063 8.93513C4.49713 8.91264 4.48361 8.89217 4.46652 8.8749C4.44944 8.85763 4.42912 8.84389 4.40672 8.83447C4.38433 8.82505 4.3603 8.82014 4.336 8.82001H2.216C2.16711 8.82027 2.12031 8.83988 2.08583 8.87455C2.05135 8.90921 2.032 8.95612 2.032 9.00501V10.893C2.032 10.995 2.114 11.078 2.217 11.078H2.216ZM23.763 9.89001C23.698 9.83901 23.091 9.38001 21.809 9.38001C21.471 9.38101 21.133 9.41001 20.799 9.46701C20.551 7.76701 19.146 6.93701 19.083 6.90101L18.739 6.70201L18.513 7.02901C18.229 7.46701 18.023 7.95101 17.901 8.45901C17.671 9.42901 17.811 10.341 18.304 11.12C17.709 11.452 16.754 11.533 16.56 11.54H0.751002C0.552516 11.5403 0.362206 11.6191 0.221668 11.7593C0.0811302 11.8994 0.00179448 12.0895 0.00100177 12.288C-0.0175165 13.6728 0.216996 15.0494 0.693002 16.35C1.238 17.778 2.048 18.83 3.103 19.474C4.283 20.197 6.203 20.611 8.378 20.611C9.361 20.614 10.341 20.525 11.308 20.345C12.6508 20.0983 13.943 19.6289 15.131 18.956C16.111 18.389 16.991 17.668 17.741 16.82C18.993 15.402 19.739 13.823 20.294 12.42H20.515C21.887 12.42 22.73 11.871 23.195 11.411C23.504 11.118 23.745 10.761 23.902 10.365L24 10.077L23.763 9.89001Z"
              fill="#2496ED"/>
    </g>
    <defs>
        <clipPath id="clip0">
            <rect width="24" height="24" fill="white"/>
        </clipPath>
    </defs>
</svg>

<svg width="24" height="24" fill="none" xmlns="http://www.w3.org/2000/svg"><g clip-path="url(#clip0)"><path d="M13.983 11.078h2.119a.186.186 0 00.186-.185V9.006a.186.186 0 00-.186-.186h-2.119a.185.185 0 00-.185.185v1.888c0 .102.083.185.185.185zm-2.954-5.43h2.118a.186.186 0 00.186-.186V3.574a.186.186 0 00-.186-.185h-2.118a.185.185 0 00-.185.185v1.888c0 .102.082.185.185.185v.001zm0 2.715h2.118a.187.187 0 00.186-.186V6.29a.186.186 0 00-.186-.185h-2.118a.185.185 0 00-.185.185v1.887c0 .102.082.185.185.186zm-2.93 0h2.12a.186.186 0 00.184-.186V6.29a.185.185 0 00-.185-.185H8.1a.185.185 0 00-.185.185v1.887c0 .102.083.185.185.186h-.001zm-2.963 0h2.119a.186.186 0 00.185-.186V6.29a.185.185 0 00-.185-.185H5.136a.186.186 0 00-.186.185v1.887c0 .102.084.185.186.186zm5.893 2.715h2.118a.186.186 0 00.186-.185V9.006a.186.186 0 00-.186-.186h-2.118a.185.185 0 00-.185.185v1.888c0 .102.082.185.185.185zm-2.93 0h2.12a.185.185 0 00.184-.185V9.006a.185.185 0 00-.184-.186h-2.12a.185.185 0 00-.184.185v1.888c0 .102.083.185.185.185h-.001zm-2.963 0h2.119a.185.185 0 00.185-.185V9.006a.185.185 0 00-.184-.186h-2.12a.186.186 0 00-.186.186v1.887c0 .102.084.185.186.185zm-2.92 0h2.12a.185.185 0 00.184-.185V9.006a.185.185 0 00-.184-.186h-2.12a.185.185 0 00-.184.185v1.888c0 .102.082.185.185.185h-.001zM23.763 9.89c-.065-.051-.672-.51-1.954-.51-.338.001-.676.03-1.01.087-.248-1.7-1.653-2.53-1.716-2.566l-.344-.199-.226.327c-.284.438-.49.922-.612 1.43-.23.97-.09 1.882.403 2.661-.595.332-1.55.413-1.744.42H.751a.751.751 0 00-.75.748 11.376 11.376 0 00.692 4.062c.545 1.428 1.355 2.48 2.41 3.124 1.18.723 3.1 1.137 5.275 1.137a15.74 15.74 0 002.93-.266 12.247 12.247 0 003.823-1.389 10.51 10.51 0 002.61-2.136c1.252-1.418 1.998-2.997 2.553-4.4h.221c1.372 0 2.215-.549 2.68-1.009.309-.293.55-.65.707-1.046l.098-.288-.237-.187z" fill="#2496ED"/></g><defs><clipPath id="clip0"><path fill="#fff" d="M0 0h24v24H0z"/></clipPath></defs></svg>
